packages/vapor/resources/icons/svg/exclamation-mark-in-circle.svg

<svg viewBox="0 0 18 18" xmlns="http://www.w3.org/2000/svg"><path d="m9 18c-5 0-9-4-9-9s4-9 9-9 9 4 9 9-4 9-9 9zm0-16c-3.9 0-7 3.1-7 7s3.1 7 7 7 7-3.1 7-7-3.1-7-7-7z"/><path d="m9 14.6c.6 0 1.1-.5 1.1-1.1s-.5-1.1-1.1-1.1-1.1.5-1.1 1.1.5 1.1 1.1 1.1zm.9-4.2c.1-.8.2-2 .2-2.3v-3.8c0-.5-.4-.9-.9-.9h-.4c-.5 0-.9.4-.9.9v3.9c0 .3.1 1.5.2 2.3.1.5.4.8.9.8s.9-.4.9-.9z"/></svg>

<svg xmlns="http://www.w3.org/2000/svg" viewBox="0 0 18 18">
<path d="M9,18c-5,0-9-4-9-9c0-5,4-9,9-9c5,0,9,4,9,9C18,14,14,18,9,18z M9,2C5.1,2,2,5.1,2,9c0,3.9,3.1,7,7,7c3.9,0,7-3.1,7-7
	C16,5.1,12.9,2,9,2z"/>
<path d="M9,14.6c0.6,0,1.1-0.5,1.1-1.1S9.6,12.4,9,12.4s-1.1,0.5-1.1,1.1S8.4,14.6,9,14.6z M9.9,10.4c0.1-0.8,0.2-2,0.2-2.3V4.3
	c0-0.5-0.4-0.9-0.9-0.9H8.8c-0.5,0-0.9,0.4-0.9,0.9v3.9c0,0.3,0.1,1.5,0.2,2.3c0.1,0.5,0.4,0.8,0.9,0.8S9.9,10.9,9.9,10.4z"/>
</svg>
